X:179
T:Navvy On The Line
M:4/4
L:1/8
K:G
B>c | d>g f>e d>c B>A | (3GBG D>G B2 A>G | (3FAF D>F A2 G>F |
G>D E>F G>A B>c | d>g f>e d>c B>A | (3GBG D>G B2 A>G |
F>G A>B c>d e>f | g2 g2 g2 :||
A>G | (3FAF D>F A2 G>F | (3GBG D>G B2 A>G | (3FAF D>F A2 G>F |
G>D E>F G>A B>c | d>g f>e d>c B>A | (3GBG D>G B2 A>G |
F>G A>B c>d e>f | g2 g2 g2 :|
